T: Millers O' Cowdenbeath, The
M: 6/8
L: 1/8
K: Amix
|:cAA AAA|cAA BGG|cAA AAA|cAA Bcd|
cAA AAA|cAA BGG|cee dcB| cAA A2a:|
|:cee ecA|fed cBA|cee ecA|BGG Bcd|
cee ecA|fed cBA|cee dcB|cAA A3:|
